X:5897
T:Gan Ainm
R:strathspey
S:Tommy Peoples & Dermot Byrnes
H:
N:
D:Concert, Galway 
Z:Adrian Scahill
M:4/4
L:1/8
K:D
D2A,D FDAD|d2cd BdAD|E2B,E GBgf|(3efd (3cdB (3ABG (3FGE|\
D2A,D FDAD|d2cd BdAF|GBdg (3fed a2|(3Adf aA d3g||\
f2df (3Adf ag|fd A<d FADf|g2eg (3Beg ba|(3gab (3efg (3cde Ag|\
f2df (3Adf ag|fd A<d FADA|GBdg (3fed aA|(3FED A,C D4||


